svg/general/outlined-two-blank-files.svg

<svg width="16" height="16" viewBox="0 0 16 16" fill="none" xmlns="http://www.w3.org/2000/svg">
<path d="M11.907 16H2.34899C1.92465 16 1.51768 15.8314 1.21762 15.5314C0.917564 15.2313 0.748993 14.8243 0.748993 14.4V3.385H2.24899V14.407C2.24899 14.4335 2.25953 14.459 2.27828 14.4777C2.29704 14.4965 2.32247 14.507 2.34899 14.507H11.907V16ZM15.242 4.23V11.763C15.2417 12.0509 15.1272 12.327 14.9236 12.5306C14.72 12.7342 14.4439 12.8487 14.156 12.849H4.99999C4.71205 12.8487 4.43597 12.7342 4.23237 12.5306C4.02876 12.327 3.91426 12.0509 3.91399 11.763L3.90599 1.084C3.90705 0.796311 4.02201 0.520752 4.22572 0.317605C4.42943 0.114458 4.7053 0.000262478 4.99299 0L10.724 0L15.242 4.23ZM10.458 4C10.458 4.04509 10.4759 4.08833 10.5078 4.12021C10.5397 4.15209 10.5829 4.17 10.628 4.17H12.979L10.458 1.8V4ZM13.747 11.353V5.67H10.628C10.1852 5.66947 9.76078 5.49335 9.44771 5.18028C9.13464 4.86721 8.95852 4.44275 8.95799 4V1.5H5.40599L5.41199 11.351L13.747 11.353Z" fill="black"/>
</svg>

<svg id="Layer_1" data-name="Layer 1" xmlns="http://www.w3.org/2000/svg" viewBox="0 0 16 16"><title>outlined-two-blank-files</title><path d="M11.907,16H2.349a1.6,1.6,0,0,1-1.6-1.6V3.385h1.5V14.407a.1.1,0,0,0,.1.1h9.558ZM15.242,4.23l0,7.533a1.087,1.087,0,0,1-1.086,1.086H5a1.087,1.087,0,0,1-1.086-1.086L3.906,1.084A1.088,1.088,0,0,1,4.993,0h5.731ZM10.458,4a.17.17,0,0,0,.17.17h2.351L10.458,1.8Zm3.289,7.353,0-5.683H10.628A1.672,1.672,0,0,1,8.958,4V1.5H5.406l.006,9.851Z"/></svg>
